static/img/in-field/radio-button-label-left.svg

<svg width="121" height="56" viewBox="0 0 121 56" fill="none" xmlns="http://www.w3.org/2000/svg">
<path d="M10.1592 37V21.2949H11.9854V35.3457H18.9141V37H10.1592ZM28.8105 37L28.4561 35.3242H28.3701C27.7829 36.0618 27.1956 36.5632 26.6084 36.8281C26.0283 37.0859 25.3014 37.2148 24.4277 37.2148C23.2604 37.2148 22.3438 36.9141 21.6777 36.3125C21.0189 35.7109 20.6895 34.8551 20.6895 33.7451C20.6895 31.3675 22.5908 30.1214 26.3936 30.0068L28.3916 29.9424V29.2119C28.3916 28.2881 28.1911 27.6077 27.79 27.1709C27.3962 26.7269 26.7624 26.5049 25.8887 26.5049C24.9076 26.5049 23.7975 26.8057 22.5586 27.4072L22.0107 26.043C22.5908 25.7279 23.2246 25.4808 23.9121 25.3018C24.6068 25.1227 25.3014 25.0332 25.9961 25.0332C27.3997 25.0332 28.4382 25.3447 29.1113 25.9678C29.7917 26.5908 30.1318 27.5898 30.1318 28.9648V37H28.8105ZM24.7822 35.7432C25.8923 35.7432 26.7624 35.4388 27.3926 34.8301C28.0299 34.2214 28.3486 33.3691 28.3486 32.2734V31.21L26.5654 31.2852C25.1475 31.3353 24.1234 31.5573 23.4932 31.9512C22.8701 32.3379 22.5586 32.943 22.5586 33.7666C22.5586 34.4111 22.752 34.9017 23.1387 35.2383C23.5326 35.5749 24.0804 35.7432 24.7822 35.7432ZM39.5449 25.0332C41.0918 25.0332 42.2913 25.5632 43.1436 26.623C44.0029 27.6758 44.4326 29.1689 44.4326 31.1025C44.4326 33.0361 43.9993 34.54 43.1328 35.6143C42.2734 36.6813 41.0775 37.2148 39.5449 37.2148C38.7786 37.2148 38.0768 37.0752 37.4395 36.7959C36.8092 36.5094 36.2793 36.0726 35.8496 35.4854H35.7207L35.3447 37H34.0664V20.2852H35.8496V24.3457C35.8496 25.2552 35.821 26.0716 35.7637 26.7949H35.8496C36.6803 25.6204 37.9121 25.0332 39.5449 25.0332ZM39.2871 26.5264C38.0697 26.5264 37.1924 26.8773 36.6553 27.5791C36.1182 28.2738 35.8496 29.4482 35.8496 31.1025C35.8496 32.7568 36.1253 33.9421 36.6768 34.6582C37.2282 35.3672 38.1126 35.7217 39.3301 35.7217C40.4258 35.7217 41.2422 35.3242 41.7793 34.5293C42.3164 33.7272 42.585 32.5778 42.585 31.0811C42.585 29.5485 42.3164 28.4062 41.7793 27.6543C41.2422 26.9023 40.4115 26.5264 39.2871 26.5264ZM52.7822 37.2148C51.042 37.2148 49.667 36.6849 48.6572 35.625C47.6546 34.5651 47.1533 33.0934 47.1533 31.21C47.1533 29.3122 47.6188 27.8047 48.5498 26.6875C49.488 25.5703 50.7448 25.0117 52.3203 25.0117C53.7956 25.0117 54.9629 25.4987 55.8223 26.4727C56.6816 27.4395 57.1113 28.7178 57.1113 30.3076V31.4355H49.001C49.0368 32.8177 49.3841 33.8669 50.043 34.583C50.709 35.2992 51.6436 35.6572 52.8467 35.6572C54.1143 35.6572 55.3675 35.3923 56.6064 34.8623V36.4521C55.9762 36.7243 55.3783 36.9176 54.8125 37.0322C54.2539 37.154 53.5771 37.2148 52.7822 37.2148ZM52.2988 26.5049C51.3535 26.5049 50.598 26.8128 50.0322 27.4287C49.4736 28.0446 49.1442 28.8968 49.0439 29.9854H55.1992C55.1992 28.861 54.9486 28.0016 54.4473 27.4072C53.946 26.8057 53.2298 26.5049 52.2988 26.5049ZM62.1953 37H60.4121V20.2852H62.1953V37Z" fill="#353A40"/>
<path fill-rule="evenodd" clip-rule="evenodd" d="M93.4998 15.1667C86.1398 15.1667 80.1665 21.14 80.1665 28.5C80.1665 35.86 86.1398 41.8333 93.4998 41.8333C100.86 41.8333 106.833 35.86 106.833 28.5C106.833 21.14 100.86 15.1667 93.4998 15.1667ZM93.4998 21.8333C89.8198 21.8333 86.8332 24.82 86.8332 28.5C86.8332 32.18 89.8198 35.1667 93.4998 35.1667C97.1798 35.1667 100.167 32.18 100.167 28.5C100.167 24.82 97.1798 21.8333 93.4998 21.8333ZM82.8332 28.5C82.8332 34.3933 87.6065 39.1667 93.4998 39.1667C99.3932 39.1667 104.167 34.3933 104.167 28.5C104.167 22.6067 99.3932 17.8333 93.4998 17.8333C87.6065 17.8333 82.8332 22.6067 82.8332 28.5Z" fill="#217CBB"/>
</svg>

<svg width="121" height="56" fill="none" xmlns="http://www.w3.org/2000/svg"><path d="M10.16 37V21.295h1.825v14.05h6.93V37h-8.756zm18.65 0l-.354-1.676h-.086c-.587.738-1.174 1.24-1.762 1.504-.58.258-1.307.387-2.18.387-1.168 0-2.084-.3-2.75-.903-.66-.601-.989-1.457-.989-2.567 0-2.377 1.902-3.624 5.705-3.738l1.998-.065v-.73c0-.924-.2-1.604-.602-2.041-.394-.444-1.028-.666-1.901-.666-.981 0-2.091.3-3.33.902l-.548-1.364a8.4 8.4 0 011.901-.741 8.318 8.318 0 012.084-.269c1.404 0 2.442.312 3.115.935.68.623 1.02 1.622 1.02 2.997V37h-1.32zm-4.028-1.257c1.11 0 1.98-.304 2.61-.913.638-.609.957-1.46.957-2.557V31.21l-1.784.075c-1.418.05-2.442.272-3.072.666-.623.387-.934.992-.934 1.816 0 .644.193 1.135.58 1.471.394.337.941.505 1.643.505zm14.763-10.71c1.547 0 2.746.53 3.599 1.59.859 1.053 1.289 2.546 1.289 4.48 0 1.933-.434 3.437-1.3 4.511-.86 1.067-2.056 1.6-3.588 1.6-.766 0-1.468-.139-2.105-.418a4.002 4.002 0 01-1.59-1.31h-.13L35.346 37h-1.279V20.285h1.784v4.06c0 .91-.029 1.727-.086 2.45h.086c.83-1.175 2.062-1.762 3.695-1.762zm-.258 1.493c-1.217 0-2.095.351-2.632 1.053-.537.695-.805 1.87-.805 3.523 0 1.655.275 2.84.827 3.556.551.71 1.436 1.064 2.653 1.064 1.096 0 1.912-.398 2.45-1.193.536-.802.805-1.951.805-3.448 0-1.532-.269-2.675-.806-3.427-.537-.752-1.368-1.128-2.492-1.128zm13.495 10.689c-1.74 0-3.115-.53-4.125-1.59-1.002-1.06-1.504-2.532-1.504-4.415 0-1.898.466-3.405 1.397-4.523.938-1.117 2.195-1.675 3.77-1.675 1.476 0 2.643.487 3.502 1.46.86.967 1.29 2.246 1.29 3.836v1.128H49c.036 1.382.383 2.43 1.042 3.147.666.716 1.6 1.074 2.804 1.074 1.267 0 2.52-.265 3.76-.795v1.59a9.112 9.112 0 01-1.794.58c-.56.122-1.236.183-2.03.183zm-.483-10.71c-.946 0-1.701.308-2.267.924-.558.616-.888 1.468-.988 2.556h6.155c0-1.124-.25-1.983-.752-2.578-.501-.601-1.217-.902-2.148-.902zM62.195 37h-1.783V20.285h1.783V37z" fill="#353A40"/><path fill-rule="evenodd" clip-rule="evenodd" d="M93.5 15.167c-7.36 0-13.334 5.973-13.334 13.333S86.14 41.833 93.5 41.833c7.36 0 13.333-5.973 13.333-13.333S100.86 15.167 93.5 15.167zm0 6.666a6.67 6.67 0 00-6.667 6.667 6.67 6.67 0 006.667 6.667 6.67 6.67 0 006.667-6.667 6.67 6.67 0 00-6.667-6.667zM82.833 28.5c0 5.893 4.773 10.667 10.667 10.667 5.893 0 10.667-4.774 10.667-10.667S99.393 17.833 93.5 17.833c-5.894 0-10.667 4.774-10.667 10.667z" fill="#217CBB"/></svg>
